src/actions/22/format-border-set-internal-horizontal.svg

<svg xmlns="http://www.w3.org/2000/svg" viewBox="0 0 22 22">
    <defs id="defs3051">
        <style id="current-color-scheme" type="text/css">
            .ColorScheme-Text{color:#050505;opacity:.7}
        </style>
    </defs>
    <path d="M3 2v17h17V2H3zm1 1h7v15H4V3zm8 0h7v15h-7V3z" class="ColorScheme-Text" style="fill:currentColor;fill-opacity:.1;stroke:none"/>
    <path d="M4 3v7h7V3H4zm8 0v7h7V3h-7zm-8 8v7h7v-7H4zm8 0v7h7v-7h-7z" class="ColorScheme-Text" style="fill:currentColor;fill-opacity:.5;stroke:none"/>
    <path d="M3 10v1h17v-1H3z" class="ColorScheme-Text" style="fill:currentColor;fill-opacity:1;stroke:none"/>
</svg>

<svg xmlns="http://www.w3.org/2000/svg" viewBox="0 0 22 22">
  <defs id="defs3051">
    <style type="text/css" id="current-color-scheme">
      .ColorScheme-Text {
        color:#363636;
      }
      </style>
  </defs>
 <path 
     style="fill:currentColor;fill-opacity:0.1;stroke:none" 
     d="M 3 2 L 3 3 L 3 18 L 3 19 L 4 19 L 11 19 L 12 19 L 19 19 L 20 19 L 20 18 L 20 3 L 20 2 L 19 2 L 4 2 L 3 2 z M 4 3 L 11 3 L 11 18 L 4 18 L 4 3 z M 12 3 L 19 3 L 19 18 L 12 18 L 12 3 z "
     class="ColorScheme-Text"
     />
 <path 
     style="fill:currentColor;fill-opacity:0.5;stroke:none" 
     d="M 4 3 L 4 10 L 11 10 L 11 3 L 4 3 z M 12 3 L 12 10 L 19 10 L 19 3 L 12 3 z M 4 11 L 4 18 L 11 18 L 11 11 L 4 11 z M 12 11 L 12 18 L 19 18 L 19 11 L 12 11 z "
     class="ColorScheme-Text"
     />
 <path 
     style="fill:currentColor;fill-opacity:1.0;stroke:none" 
     d="M 3 10 L 3 11 L 20 11 L 20 10 L 3 10 z "
     class="ColorScheme-Text"
     />
</svg>
